src/renderer/assets/icon/wxpay-default-icon.svg

<?xml version="1.0" encoding="UTF-8"?>
<svg width="201px" height="177px" viewBox="0 0 201 177" version="1.1" xmlns="http://www.w3.org/2000/svg" xmlns:xlink="http://www.w3.org/1999/xlink">
    <!-- Generator: Sketch 59 (86127) - https://sketch.com -->
    <title>微信支付</title>
    <desc>Created with Sketch.</desc>
    <g id="中文" stroke="none" stroke-width="1" fill="none" fill-rule="evenodd">
        <g id="画板" transform="translate(-55.000000, -27.000000)" fill="#1EAA37" fill-rule="nonzero">
            <g id="微信支付" transform="translate(55.000000, 27.000000)">
                <path d="M72.8572266,111.905078 C72,112.476562 70.8572266,112.762305 69.7142578,112.762305 C67.1427734,112.762305 65.1427734,111.333789 64,109.333789 L63.4285156,108.476562 L45.1427734,68.4765625 C44.8572266,67.9050781 44.8572266,67.6193359 44.8572266,67.0480469 C44.8572266,65.3337891 46.2857422,63.6193359 48.2857422,63.6193359 C49.1427734,63.6193359 49.7142578,63.9050781 50.2857422,64.1908203 L71.7142578,79.6193359 C73.1427734,80.7623047 75.1427734,81.3337891 77.1427734,81.3337891 C78.2857422,81.3337891 79.4285156,81.0480469 80.5714844,80.7623047 L181.714258,35.6191406 C163.428516,14.1908203 133.714258,0.190820312 100,0.190820312 C44.8572266,0.190820312 0,37.6193359 0,83.6193359 C0,108.762305 13.4285156,131.333984 34.5714844,146.476562 C36.2857422,147.619336 37.4285156,149.619336 37.4285156,151.905078 C37.4285156,152.762305 37.1427734,153.333789 37.1427734,153.905078 C35.4285156,160.19082 32.8572266,170.19082 32.5714844,170.762305 C32.2857422,171.619336 32,172.476562 32,173.333789 C32,175.048047 33.4285156,176.762305 35.4285156,176.762305 C36.2857422,176.762305 36.8572266,176.476563 37.4285156,176.19082 L59.4285156,163.619336 C61.1427734,162.762305 62.8572266,162.19082 64.8572266,162.19082 C66,162.19082 66.8572266,162.476562 67.7142578,162.762305 C78,165.619336 88.8572266,167.333789 100.285742,167.333789 C155.428516,167.333789 200.285742,129.905078 200.285742,83.9050781 C200.285742,69.9050781 196.285742,56.7623047 188.857227,45.3337891 L73.4285156,111.333789 L72.8572266,111.905078 Z" id="路径"></path>
            </g>
        </g>
    </g>
</svg>

<svg width="201" height="177" xmlns="http://www.w3.org/2000/svg">
    <path d="M72.857 111.905c-.857.572-2 .857-3.143.857-2.571 0-4.571-1.428-5.714-3.428l-.571-.857-18.286-40c-.286-.572-.286-.858-.286-1.429 0-1.714 1.429-3.429 3.429-3.429.857 0 1.428.286 2 .572l21.428 15.428c1.429 1.143 3.429 1.715 5.429 1.715 1.143 0 2.286-.286 3.428-.572L181.714 35.62C163.43 14.191 133.714.191 100 .191 44.857.19 0 37.619 0 83.619c0 25.143 13.429 47.715 34.571 62.858 1.715 1.142 2.858 3.142 2.858 5.428 0 .857-.286 1.429-.286 2-1.714 6.286-4.286 16.286-4.572 16.857-.285.857-.571 1.715-.571 2.572 0 1.714 1.429 3.428 3.429 3.428.857 0 1.428-.285 2-.571l22-12.572c1.714-.857 3.428-1.428 5.428-1.428 1.143 0 2 .286 2.857.571 10.286 2.857 21.143 4.572 32.572 4.572 55.143 0 100-37.429 100-83.429 0-14-4-27.143-11.429-38.571l-115.428 66-.572.571z" fill="#1EAA37"/>
</svg>
